X:1
T:Trumbull
T:A minor            Asahel Benham, 1783
T:Transcribed from Brownson's Select Harmony, 1783.
T:Isaac Watts, 1719 (Psalm 144, Part 1)                86. 86. (C. M.)
%%score [ 1 2 3 4 ]
L:1/8
Q:1/4=100
M:4/4
K:C
V:1 treble nm="Tr." snm="Tr."
V:2 treble nm="C." snm="C."
V:3 treble-8 nm="T." snm="T."
V:4 bass nm="B." snm="B."
V:1
"_1. For   ev – er    bles  –  sed       be _________________ the Lord,        My  Savior  and _______________ my shield;                                                      He  sends  his  Spi – rit   with     his   word,  And""_2. A  friend  and  hel   –   per      so _________________  di – vine       Does my weak cou        –        –    rage raise;                                                       He  makes the  glorious  vic   –  tory  mine,  And" c4 A2 GA | %1
 B4 (c2 f2) | (e3 c B3 A | G2) E2 E4- | E4 G4 | A2 A2 (A2 G2 | c2 A2 G2) G2 | A6 z2 | z8 | %9
 z4 z2 A2 | e2 e2 e2 ed | c2 cd e2 AB | %12
"_1. arms  me   for    the     field. _________  He        sends   his    Spi  – rit    with   his  word,  And  arms  me    for   the     field. _______________                             And  arms  me    for ______ the  field.""_2. his    shall  be     the    praise. ________  He        makes  the    glo–rious  vic  – tory mine,  And   his   shall   be    the    praise. ______________                             And   his  shall    be ______ the  praise." c2 cA B2 BA | %13
 (G>AGF E2) E2 | e2 e2 e2 ed | c2 cd e2 AB | c2 cA B2 BA | (G>AGF E4) | z4 z2 G2 | G4 B4 | %20
 (c2 E2 G2) G2 | A8 |] %22
V:2
"_1. For   ev – er    bles  –  sed       be _________________ the Lord,        My  Savior  and _______________ my shield;                                                                                  He       sends   his    Spi – rit""_2. A  friend  and  hel   –   per      so _________________  di – vine       Does my weak cou        –        –    rage raise;                                                                                   He       makes  the   glo–rious" E4 E2 EF | %1
 G4 (E2 D2) | (G3 F E3 C | B,2) E2 E4- | E4 E4 | F2 F2 (F2 E2 | G2 F2 E2) E2 | E6 z2 | z8 | z8 | %10
 z4 z2 G2 | A2 A2 A2 Ac | %12
"_1. with  his  word,  And   arms     me      for   the      field. ________   He     sends  his     Spi – rit    with  his  word,  And    arms   me     for  the        field. ________ And  arms  me   for      the        field.""_2. vic –tory  mine,  And    his     shall      be   the      praise. _______   He     makes  the   glorious    vic – tory mine,  And    his     shall    be  the        praise. _______ And   his  shall   be      the       praise." G2 GA E2 ED | %13
 C2 C>D E2 E>F | (G>AGF E2) E2 | A2 A2 A2 Ac | G2 GA E2 ED | C2 C>D E2 E>F | (G>AGF E2) E2 | %19
 G4 G4 | E4 E4 | E8 |] %22
V:3
"_1. For   ev – er    bles  –  sed       be _________________ the Lord,        My  Savior  and _______________ my shield;                         He      sends his Spirit with his word, And   arms     me     for   the""_2. A  friend  and  hel   –   per      so _________________  di – vine       Does my weak cou        –        –    rage raise;                          He  makes the glorious victory mine, And   his       shall    be   the" A4 c2 BA | %1
 (G2 E2) (c2 A2) | (G3 A G3 E | G2) A2 B4- | B4 B4 | d2 d2 (d2 B2 | c2 d>f e2) E2 | A6 z2 | %8
 z4 z2 B2 | c2 c2 c2 cA | B2 B2 B2 BG | A2 A2 A2 AF | %12
"_1. field. ________  He     sends   his      Spi  –  rit    with    his    word,  And   arms  me   for   the      field. ________                                                                            And  arms  me  for ______  the  field.""_2. praise. _______  He     makes  the     glo – rious  vic  –  tory  mine,  And    his   shall   be   the      praise._______                                                                            And   his   shall  be ______  the  praise." (G>AGF E2) E2 | %13
 c2 c2 c2 cA | B2 B2 B2 BG | A2 A2 A2 AF | (G>AGF E4) | z8 | z4 z2 B2 | e4 ^d4 | (e2 cA B2) B2 | %21
 A8 |] %22
V:4
 A,4 A,2 G,F, | (E,2 G,2) (C,2 D,2) | (E,3 F, G,3 A, | B,2) C2 E,4- | E,4 E,4 | D,2 D,2 (D,2 E,2 | %6
 C,2 F,D, E,2) E,2 | %7
 A,,6"_1. He sends his Spirit with his word, And  arms  me  for  the    field. _________  He""_2. He makes the glorious victory mine, And   his  shall  be   the   praise. ________  He" A,,2 | %8
 E,2 E,2 E,2 E,G, | C,2 C,2 C,2 D,F, | E,2 E,2 E,2 E,C, | (G,>A,G,F, E,2) E,2 | %12
"__________________________________________________________________________\nEdited by B. C. Johnston, 2018    1. Measure 4, \nTreble\n: second note changed from F to E. \n     2. In the fugue section of the original, repeats are in different places for each part. \n     In this edition, measures have been copied so that repeats are not necessary.""_1. sends   his    Spi – rit     with     his   word,   And   arms   me    for   the     field. ___________________________________________________________________     And   arms  me     for       the       field.""_2. makes  the    glorious     vic  –  tory  mine,   And    his    shall   be    the    praise. __________________________________________________________________     And   his   shall     be       the      praise." E,2 E,2 E,2 E,G, | %13
 C,2 C,2 C,2 D,F, | E,2 E,2 E,2 E,C, | (G,>A,G,F, E,4- | E,8- | E,8- | E,6) E,2 | E,4 G,4 | %20
 C,4 E,4 | A,,8 |] %22

